X: 1
T: Chicken Dance  [C]
O: Mexico
Z: John Chambers <jc@trillian.mit.edu> http://trillian.mit.edu/~jc/music/
M: 2/4
L: 1/8
K: C
|: z G/G/ A/A/ E/E/ | "C"G G/G/ A/A/ E/E/ | G G/G/ A/A/ c/c/ | "G7"B z z2 | z F/F/ G/G/ D/D/ |
| "G7"F F/F/ G/G/ D/D/ |1 F F/F/ G/G/ B/B/ | "C"A z z2 :|2 "G7"F (GAB) | "C"c4 || zG _GF |
| "C"E3 G | e3 d | d2 c2- | c G_GF | E3 G | d3 c | "G7"B4- | B GG_G |
| "G7"F3 G | d3 c | c2 B2- | B ddc | c2 B2- | B Bcd | "C"c4 |]


